!! 00048] TT[KA
!! NN
!!!OTL: Shuanzhu taiyang hao ganhuo
!!!ARE: Asia, China,ÿSichuan, Pingchang
!! Ethnic Group: Han
!! II, 212, 1)
!!!SCT: C0223
!!!YEM: Copyright 1995, estate of Helmut Schaffrath.
**kern
*ICvox
*Ivox
*M2/4
*k[f#c#]
*D:
{8.b
16b
8b
8dd
=1
8ee
4.ff#
=2
8ee
8dd
4ff#
=3
8ff#
4ee
8dd}
=4
{16b
16dd
4b
8dd
=5
8ee
8ff#
8ff#
8ee
=6
8dd
8b
8ee
8dd
=7
2b}
==
!!!AGN: Shange. Nongtian laodong shi chang
!! sehr kleiner Tonumfang, aehnlich wie in Hunan.
!!!ONB: ESAC (Essen Associative Code) Database: CHINA
!!!AMT: simple duple
!!!AIN: vox
!!!EED: Helmut Schaffrath
!!!EEV: 1.0
*-
